X:1
T: Lille Jon
R: Polska
S: Utlärd av Jonas Hjalmarsson
Z: Karin Arén
M: 3/4
L: 1/8
K: Am
v(^f |: e2) (c>d) e2 | u^f2 fd e2 | uc2 c>d e>^f | vg2 (3(g^fg) a2 |
u(a>b) ag e^f | vg2 (3(^fdf) e2 | uc2 c>d e>g |1 v(g<^f) ue3 v(^f:|2 v(g<^f) ue3 uB |  
vA2 (F>G) A2 | uB2 B>G A2 | uA2 ^c>d e>^f | vg2 (3(g^fg) a2 |
u(a>b) ag e^f | vg2 (3(^fdf) e2 | uc2 c>B G>B |1 v(B<A) uA3 v(^f!D.C.!|]2 v(B<A) uA4|]

